X:6
T:In the Bleak Midwinter
M:4/4
L:1/4
Z:Kevin Goess 9/7/2004
C:Christina Rossetti 1872, Gustav Holst 1906
Q:1/4=120
N:The history here.
K:Dmaj
"D" F>G A F | "Bm" E2 D z | "Em" E>F E B, | "G" (E2 "A" E) z |
w:In the bleak mid-win-ter fros-ty wind made moan,_
"D" F>G A F | "Bm" E2 D z | "G" E F "A7" E>D |"D" D4 |
w:Earth stood hard as i-ron, wa-ter like a stone;
"G" G>F G A | B B "Bm" F2 | "D" (A F) (E D) | "A" C3 z |
w:Snow had fal-len, snow on snow, snow_ on_ snow,
"D" F>G A F | "Bm" E2 D z | "G" E F "A" E>D | "D" D4 |]
w:In the bleak mid-win-ter, long_ a_ go.
W:
W:Our God, heavn' cannot hold him, nor earth sustain;
W:Heavn' and earth shall flee away when he comes to reign:
W:In the bleak midwinter a stable place sufficed
W:The Lord God Almighty Jesus Christ
W:
W:Enough for him whom cherubim worship night and day,
W:A breastful of milk, and a manger full of hay;
W:Enough for him whom angels fall down before,
W:The ox and ass and camel which adore.
W:
W:Angels and archangels may have gathered there,
W:Cherubim and seraphim thronged the air;
W:But His mother only, in her maiden bliss,
W:Worshipped the beloved with a kiss.
W:
W:What can I give him, poor as I am?
W:If I were a shepherd, I would bring a lamb;
W:If I were a wise man, I would do my part;
W:Yet what I can give him: give my heart.

